!!!OTL: Xiu zhanbu
!!!ARE: Asia, China,ˇJilin, Changchun
!! III, 164
!!!SCT: C1553
!!!YEM: Copyright 1995, estate of Helmut Schaffrath.
**kern
*ICvox
*Ivox
*M4/4
*k[f#]
*G:
{4b
4ee
2ee
=1
4dd
8b
8a
2a
=2
4b
4.ee
8dd
8dd
8b
=3
4a}
{8.a
16g
8.e
16d
8c
8d
=4
4e
4b
8a
8cc
8a
8g
=5
4.e
8d
2e}
=6
{4ee
4b
2ee
=7
4gg
8b
8a
2a
=8
8b
8dd
8ee
8ee
8ee
4dd
8b
=9
4a}
{8a
8g
8e
8d
8c
8d
=10
4e
4b
8a
8cc
8a
8g
=11
4.e
8d
2e}
=12
{8e
4e
8g
2a
=13
4a
4ee
4cc
8b
8a
=14
4a
[4e
8e]
4d
8B
=15
8e
8d
8c
8B
2A}
=16
{4.e
8g
2a
=17
8cc
4cc
8dd
8cc
8a
8g
8e
=18
8a
8a
8g
8e
2d}
=19
{8e
8d
8e
8g
2a
=20
8cc
8dd
8ee
[8ee
8ee]
[8dd
8dd]
8b
=21
4a}
{8a
8g
8e
8d
8c
8d
=22
4e
8dd
8b
8a
8cc
8a
8g
=23
4.e
8d
2e}
==
!!!AGN: Xiaodiao. FunÅ qing
!!!AMT: simple quadruple
!!!AIN: vox
!!!EED: Helmut Schaffrath
!!!EEV: 1.0
*-
